static/roadshow/maker_dao.svg

<?xml version="1.0" encoding="utf-8"?>
<!-- Generator: Adobe Illustrator 25.2.1, SVG Export Plug-In . SVG Version: 6.00 Build 0)  -->
<svg version="1.1" id="Layer_1" xmlns="http://www.w3.org/2000/svg" xmlns:xlink="http://www.w3.org/1999/xlink" x="0px" y="0px"
	 viewBox="0 0 2000 2000" style="enable-background:new 0 0 2000 2000;" xml:space="preserve">
<style type="text/css">
	.st0{fill:#333333;}
</style>
<g id="ZzgbGP_1_">
	<g>
		<path class="st0" d="M404.51,1000.68c0-127.16-0.05-254.32,0.06-381.48c0.01-14.69-2.72-30.76,14.16-39.48
			c18.09-9.35,31.09,1.05,44.57,11.19c156.53,117.67,313.07,235.35,469.99,352.51c14.07,10.51,20.34,22.31,20.31,39.53
			c-0.23,133.89-0.07,267.78,0.05,401.67c0.01,9.13-1.05,17.79-6.14,25.73c-6.23,9.72-14.68,14.45-26.37,13.44
			c-10.89-0.95-17.55-7.04-22.08-16.52c-4.72-9.86-4.47-20.29-4.47-30.77c0.02-122.67-0.27-245.34,0.39-368.01
			c0.09-15.98-4.95-25.82-17.74-35.34C745.38,874.9,614.01,775.98,482.32,677.49c-5.47-4.09-10.82-13.29-18.68-8.61
			c-6,3.57-2.66,12.45-2.66,18.91c-0.13,230.38-0.12,460.76-0.15,691.15c0,6.73,0.7,13.61-0.42,20.16
			c-2.57,14.97-11.42,24.55-27.18,24.64c-15.42,0.09-25.59-7.82-27.57-23.71c-1.1-8.86-1.18-17.9-1.19-26.85
			c-0.07-124.17-0.05-248.33-0.05-372.5C404.45,1000.68,404.48,1000.68,404.51,1000.68z"/>
		<path d="M1595.5,1000.24c0.01,126.41,0.05,252.82-0.07,379.23c-0.01,8.16,0,16.68-2.24,24.39c-3.69,12.7-12.94,19.98-26.71,19.66
			c-13.72-0.32-22.71-7.63-25.61-20.83c-1.74-7.9-1.76-16.28-1.77-24.45c-0.08-229.63-0.04-459.26-0.18-688.89
			c0-7.19,3.67-17.21-2.86-21c-8.55-4.97-14.38,5.29-20.47,9.84c-131.12,98.1-261.88,196.69-393.24,294.47
			c-14.19,10.57-19.81,21.65-19.72,39.19c0.63,121.92,0.33,243.84,0.3,365.76c0,7.47,0.44,15.06-0.62,22.4
			c-2.09,14.43-10.88,22.98-25.58,23.42c-14.49,0.43-24.34-7.2-27.75-21.24c-1.73-7.14-1.45-14.85-1.46-22.3
			c-0.08-129.4,0.42-258.8-0.48-388.2c-0.17-24.16,7.86-39.78,27.38-54.29c156.04-115.99,311.36-232.95,466.74-349.82
			c12.1-9.1,24.18-15.63,38.99-7.94c14.01,7.28,15.45,20.5,15.43,34.65C1595.42,742.93,1595.49,871.58,1595.5,1000.24z"/>
	</g>
</g>
</svg>

<svg width="2000" height="2000" viewBox="0 0 2000 2000" fill="none" xmlns="http://www.w3.org/2000/svg">
<path d="M404.51 1000.68C404.51 873.52 404.46 746.36 404.57 619.2C404.58 604.51 401.85 588.44 418.73 579.72C436.82 570.37 449.82 580.77 463.3 590.91C619.83 708.58 776.37 826.26 933.29 943.42C947.36 953.93 953.63 965.73 953.6 982.95C953.37 1116.84 953.53 1250.73 953.65 1384.62C953.66 1393.75 952.6 1402.41 947.51 1410.35C941.28 1420.07 932.83 1424.8 921.14 1423.79C910.25 1422.84 903.59 1416.75 899.06 1407.27C894.34 1397.41 894.59 1386.98 894.59 1376.5C894.61 1253.83 894.32 1131.16 894.98 1008.49C895.07 992.51 890.03 982.67 877.24 973.15C745.38 874.9 614.01 775.98 482.32 677.49C476.85 673.4 471.5 664.2 463.64 668.88C457.64 672.45 460.98 681.33 460.98 687.79C460.85 918.17 460.86 1148.55 460.83 1378.94C460.83 1385.67 461.53 1392.55 460.41 1399.1C457.84 1414.07 448.99 1423.65 433.23 1423.74C417.81 1423.83 407.64 1415.92 405.66 1400.03C404.56 1391.17 404.48 1382.13 404.47 1373.18C404.4 1249.01 404.42 1124.85 404.42 1000.68C404.45 1000.68 404.48 1000.68 404.51 1000.68Z" fill="#E1E1E1"/>
<path d="M1595.5 1000.24C1595.51 1126.65 1595.55 1253.06 1595.43 1379.47C1595.42 1387.63 1595.43 1396.15 1593.19 1403.86C1589.5 1416.56 1580.25 1423.84 1566.48 1423.52C1552.76 1423.2 1543.77 1415.89 1540.87 1402.69C1539.13 1394.79 1539.11 1386.41 1539.1 1378.24C1539.02 1148.61 1539.06 918.98 1538.92 689.35C1538.92 682.16 1542.59 672.14 1536.06 668.35C1527.51 663.38 1521.68 673.64 1515.59 678.19C1384.47 776.29 1253.71 874.88 1122.35 972.66C1108.16 983.23 1102.54 994.31 1102.63 1011.85C1103.26 1133.77 1102.96 1255.69 1102.93 1377.61C1102.93 1385.08 1103.37 1392.67 1102.31 1400.01C1100.22 1414.44 1091.43 1422.99 1076.73 1423.43C1062.24 1423.86 1052.39 1416.23 1048.98 1402.19C1047.25 1395.05 1047.53 1387.34 1047.52 1379.89C1047.44 1250.49 1047.94 1121.09 1047.04 991.69C1046.87 967.53 1054.9 951.91 1074.42 937.4C1230.46 821.41 1385.78 704.45 1541.16 587.58C1553.26 578.48 1565.34 571.95 1580.15 579.64C1594.16 586.92 1595.6 600.14 1595.58 614.29C1595.42 742.93 1595.49 871.58 1595.5 1000.24Z" fill="white"/>
</svg>
